X:1
T:Las, je n'eusse jamais
T:Jean de Castro
T:Source : Chansons, madrigaux et motetz à 3 parties---Anvers---P.Phalèse---1582. Editor : André Vierendeels (05/10/15).
T:Notes : Original clefs : C1, C3, C4 Editorial accidentals above the staff
T:Las, je n'eusse jamais
C:Jean de Castro
%%score [ 1 [ 2 3 ] ]
L:1/8
Q:1/4=110
M:2/2
K:C
V:1 treble nm="Superius" snm="S"
V:2 treble-8 nm="Tenor 1" snm="T 1"
V:3 treble-8 nm="Tenor 2" snm="T 2"
V:1
 A8- | A8- | A8- | A8 | G8 | c8 | A8- | A4 G4 | F8 | E8 | F8- | F8- | F8 | z8 | z8 | D8 | d8- | %17
w: Las,|_|||je|n'eus-|se|_ ja-|mais|pen-|sé,|_||||da-|me,|
 d4 ^c4 | d4 D4 | F8- | F4 G4 | A6 B2 | c8 | z4 A4 | ^c4 d4 | A4 D4 | ^F4 A4 | G4 z2 ^F2 | A4 _B4 | %29
w: _ qui|cau- se|ma|_ lan-|gueur, _|_|de|voir ain-|si, de|voir ain-|si, de|voir ain-|
 A4 c4 | d8 | _B8 | A4 A4- | A2 A2 E4 | G6 D2 | G2 G2 A4 | z4 c4 | B4 B4 | c8 | z8 | z8 | z8 | %42
w: si re-|com-|pen-|sé mon|_ ser- vi-|ce d'u-|ne ri- gueur,|d'u-|ne ri-|gueur,||||
 A4 A4 | ^G4 A2 A2 | B4 c4 | d4 G4 | A8- | A4 G4 | d8 | c8 | A4 _B4 | A8 | A4 F4- | F2 F2 E4 |] %54
w: et qu'en|lieu de me|se- cou-|rir, ta|cru-|* au-|té,|ta|cru- au-|té|m'eust fait|_ mou- rir.|
V:2
 z8 | A6 B2 | c2 B2 A2 B2 | c2 d2 e2 f2 | g4 e4 | A2 B2 c2 d2 | e2 c2 f4- | f4 e4- | e2 d2 d4- | %9
w: |Las, _|_ _ _ _||* je|n'eus- * * *||* se|_ ja- mais|
"^#" d4 c4 | d8 | z4 A4 | d8- | d4 d4 | d4 A4 | B2 G2 g4- |"^-natural" g4 f4 | e8 | z4 f4 | d4 d4 | %20
w: _ pen-|sé,|da-|me,|_ qui|cau- se|ma- _ _|_ lan-|gueur,|qui|cau- se|
 d8 | f4 e4 | z4 e4 | e4 f4 | e2 A2 A4- | A4 _B4 | A4 A4 | c4 d4 | A4 d4 |"^-natural" f4 e4 | %30
w: ma|lan- gueur,|de|voir ain-|si, de voir|_ ain-|si, de|voir ain-|si, de|voir ain-|
 d2 d2 f4- | f4 e4 | f6 ed | c4 z2 e2- | e2 e2 d4- | d2 e2 z2 ^f2 | ^g4 a4- | a4 ^g4 | z4 f2 f2 | %39
w: si re- com-|* pen-|sé, _ _|_ mon|_ ser- vi-|* ce d'u-|ne ri-|* gueur,|et qu'en|
 e8 | z4 e2 e2 | d4 e2 e2 | f4 f4 | e4 f2 f2 | d4 a2 a2 | d4 e4 | f4 z2 d2 | e8- | e4 d4 | a8 | %50
w: lieu,|et qu'n|lieu de me|se- cou-|rir, et qu'en|lieu de me|se- cou-|rir, ta|cru-|* au-|té,|
 e4 g4- | g4 f4 | e2 c2 A4- | A2 d2 ^c4 |] %54
w: ta cru-|* au-|té m'eust fait|_ mou- rir.|
V:3
 z4 D4- | D2 E2 F2 G2 | A2 G2 F2 G2 | A2 B2 c2 d2 | e4 c4- | c4 A4- | A4 F2 G2 | A2 B2 c4 | d8 | %9
w: Las,|_ _ _ _|||* je|_ n'eus-|* se _|_ _ _|ja-|
 A4 A4 | D8- | D8 | z4 D4 | G8- | G4 ^F4 | G8- | G4 D4 | A8 | _B8- | B8- | B8 | A8 | z4 A4 | %23
w: mais pen-|sé,|_|da-|me,|_ qui|cau-|* se|ma|lan-|||gueur,|de|
 ^c4 d4 | A4 D4 | ^F4 G4 | D8 | z4 D4 | ^F4 G4 | D4 A4 | _B8 | G8 | F8 | A6 A2 | E4 G4- | %35
w: voir ain-|si, de|voir ain-|si,|de|voir ain-|si re-|com-|pen-|sé,|mon ser-|vi- ce|
"^#" G2 E2 F2 D2 | E8- | E8 | z8 | A4 A4 | ^G4 A2 A2 | B4 ^c4 | d8 | z4 D2 D2 | %44
w: _ d'u- ne ri-|gueur,|_||et qu'en|lieu de me|se- cou-|rir,|et qu'en|
"^-natural" G4 F2 A2 | G4 E4 | D8 | z8 | z4 G4 | A8- | A4 G4 | d8 | A4 D4- | D2 D2 A4 |] %54
w: lieu de me|se- cou-|rir,||ta|cru-|* au-|té|m'eust fait|_ mou- rir.|

